X:381
T:Troop
S:Bruce & Emmett's Drummers and Fifers Guide (1862), p. 38
M:3/4
L:1/4
K:D
%%MIDI program 72
%%MIDI transpose 8
%%MIDI ratio 3 1
d/e/|fgf|eaf|{c}d>cd|ecd/B/|ABG|FAd/f/|fgf|ezd/e/|
fgf|eaf|{c}d>cd|ecd/B/|ABG|FAd/f/|eBc|dz::
d/e/|fde|fba|fde|fdc/d/|ecd|ead|cdB|
Az(3A/B/c/|d>ef|fde|faf|gef|g>ab|afd|eBc|dz:||
